X: 19
T: Praeludia organi op. 5 – Lento
C: Franciszek Walczyński
%%abc-version 2.0
%%abcx-abcm2ps-target-version 5.9.1 (29 Sep 2008)
%%abc-creator hum2abc beta
%%abcx-conversion-date 2021/10/04 07:38:40
%%abc-edited-by Andrzej Borzym
%%abc-edited-by Krzysztof Stępień
%%abcx-initial-encoding-date 2021-07-26
%%humdrum-veritas 3466034142
%%humdrum-veritas-data 2708535207
%%linebreak <none>
%%barnumbers 0
L: 1/8
M: 2/4
N: Derived from pl-kozmzk--mzk-m-159--008_walczynski-franciszek--praeludia-organi-op-5-lento.krn
Q: "8. Lento."
%%staves {1 2}
V: 1 clef=treble
V: 2 clef=bass
K: A
[V:1] C2DC & A,4- | 
[V:2] E,2F,E, & A,,4- | 
[V:1] F2E2 & A,4 | 
[V:2] D,2C,2 & A,,4 | 
[V:1] E3D & B,4 | 
[V:2] E,4 & G,,4 | 
[V:1] C4 & A,4 | 
[V:2] E,4 & A,,4 | 
[V:1] E3^E & C4 | 
[V:2] A,4- & A,,4 | 
[V:1] F2cB | 
[V:2] A,2D2 & D,4 | 
[V:1] A4 & E4- | 
[V:2] C3=C & E,4- | 
[V:1] !fermata!G4 & E4 | 
[V:2] B,4 & E,4 | 
[V:1] e3d & E4- | 
[V:2] z G,A,B, & x E,F,G, | 
[V:1] c4- & E2^E2 | 
[V:2] C2B,2 & A,2G,2 | 
[V:1] c4 & F2=G2 | 
[V:2] A,2^A,2 & F,2E,2 | 
[V:1] e2d2- & F4- | 
[V:2] B,4- & D,4 | 
[V:1] !accent!d2cB & F4 | 
[V:2] B,2^A,B, & B,,2C,D, | 
[V:1] =A4- & E4 | 
[V:2] C2=C2 & E,4- | 
[V:1] AGFG & D4- | 
[V:2] B,4 & E,4 | 
[V:1] B2A2 & D2C2- | 
[V:2] ^G,E,A,2 & A,,4- | 
[V:1] A4- & C2DE- | 
[V:2] =G,4 & A,,4- | 
[V:1] A4- & E2D2 | 
[V:2] F,4 & A,,4- | 
[V:1] AGAB & D4 | 
[V:2] =F,4 & A,,4- | 
[V:1] !accent!c3A & C4- | 
[V:2] E,4- & A,,4- | 
[V:1] A4- & CDCB, | 
[V:2] E,F,E,D, & A,,4- | 
[V:1] !fermata!A4 & C4 |]  
[V:2] E,4 & !fermata!A,,4 |]  


